remix/Design/palette-fill.svg

<svg viewBox="0 0 24 24" fill="currentColor" xmlns="http://www.w3.org/2000/svg"><path d="M12 2C17.5222 2 22 5.97778 22 10.8889C22 13.9556 19.5111 16.4444 16.4444 16.4444H14.4778C13.5556 16.4444 12.8111 17.1889 12.8111 18.1111C12.8111 18.5333 12.9778 18.9222 13.2333 19.2111C13.5 19.5111 13.6667 19.9 13.6667 20.3333C13.6667 21.2556 12.9 22 12 22C6.47778 22 2 17.5222 2 12C2 6.47778 6.47778 2 12 2ZM7.5 12C8.32843 12 9 11.3284 9 10.5C9 9.67157 8.32843 9 7.5 9C6.67157 9 6 9.67157 6 10.5C6 11.3284 6.67157 12 7.5 12ZM16.5 12C17.3284 12 18 11.3284 18 10.5C18 9.67157 17.3284 9 16.5 9C15.6716 9 15 9.67157 15 10.5C15 11.3284 15.6716 12 16.5 12ZM12 9C12.8284 9 13.5 8.32843 13.5 7.5C13.5 6.67157 12.8284 6 12 6C11.1716 6 10.5 6.67157 10.5 7.5C10.5 8.32843 11.1716 9 12 9Z"/></svg>

<svg viewBox="0 0 24 24" xmlns="http://www.w3.org/2000/svg"><path fill="none" d="M0 0h24v24H0Z"/><path d="M12 2c5.52 0 10 3.97 10 8.88h0c-.01 3.06-2.49 5.55-5.56 5.55h-1.97c-.93 0-1.67.74-1.67 1.66 0 .42.16.81.42 1.1 .26.3.43.68.43 1.12 0 .92-.77 1.66-1.67 1.66 -5.53 0-10-4.48-10-10 0-5.53 4.47-10 10-10ZM7.5 12v0c.82 0 1.5-.68 1.5-1.5C9 9.67 8.32 9 7.5 9v0C6.67 9 6 9.67 6 10.5c0 .82.67 1.5 1.5 1.5Zm9 0v0c.82 0 1.5-.68 1.5-1.5 0-.83-.68-1.5-1.5-1.5v0c-.83 0-1.5.67-1.5 1.5 0 .82.67 1.5 1.5 1.5ZM12 9v0c.82 0 1.5-.68 1.5-1.5 0-.83-.68-1.5-1.5-1.5v0c-.83 0-1.5.67-1.5 1.5 0 .82.67 1.5 1.5 1.5Z"/></svg>
